public/uploads/logo-homedepot.svg

<svg width="113" height="113" viewBox="0 0 113 113" fill="none" xmlns="http://www.w3.org/2000/svg">
<path d="M20.4598 110.01L2.97629 92.5298C1.73922 91.2921 1.57527 91.0587 0.0430787 91.8567C0.0289335 91.8644 0.0141453 91.8701 0 91.8785V113H21.0977C21.1073 112.98 21.1176 112.959 21.1279 112.94C21.9239 111.414 21.6924 111.243 20.4598 110.01Z" fill="black"/>
<path d="M108.573 108.188C109.021 108.188 109.419 108.154 109.419 107.591C109.419 107.138 109.03 107.054 108.66 107.054H107.942L107.942 108.188H108.573Z" fill="black"/>
<path d="M108.581 111.061C109.948 111.061 111.025 109.936 111.025 108.405C111.025 106.902 109.948 105.768 108.581 105.768C107.201 105.768 106.123 106.902 106.125 108.405C106.125 109.936 107.201 111.061 108.581 111.061ZM108.743 106.583C109.565 106.583 109.971 106.902 109.971 107.626C109.971 108.281 109.581 108.568 109.071 108.633L110.06 110.248H109.469L108.55 108.66H107.944V110.248H107.418L107.417 106.583H108.743Z" fill="black"/>
<path d="M109.158 15.4402L113 19.2761V0H93.2609L97.4171 4.1587C97.5855 4.32459 98.188 4.99585 97.1875 5.98923C96.6198 6.55761 96.1202 6.39108 95.4548 6.05996C91.8889 4.21593 88.5557 4.28537 85.157 6.746L83.2204 4.81324L88.0343 0H0V88.0343L8.03129 80.0043C8.16438 79.875 9.32815 78.8386 10.2926 79.803C10.7594 80.2724 10.7645 80.8703 10.4643 81.4368C9.66249 82.9735 9.89653 83.1374 11.1342 84.3739L28.6152 101.852C29.8497 103.091 30.0143 103.323 31.5484 102.524C32.1142 102.223 32.7148 102.223 33.1815 102.692C34.1466 103.661 33.1153 104.823 32.9835 104.957L24.9407 113H57.0845C57.1423 112.869 57.2124 112.735 57.2812 112.592C57.5294 112.127 56.9835 111.654 56.7038 111.373L46.8735 101.544C46.5906 101.263 46.1238 100.72 45.6551 100.965C45.1491 101.209 44.7363 101.51 44.265 101.041C43.7789 100.554 44.1911 100.026 44.5666 99.6552L49.3682 94.8529L63.3971 108.88L59.2757 113H113V59.2783L108.503 63.7726C108.429 63.8472 107.772 64.431 107.229 63.8845C106.966 63.6247 106.965 63.2865 107.135 62.9676C107.586 62.1054 107.453 62.0134 106.762 61.3197L94.8285 49.3888L99.4244 44.7935L111.353 56.7218C112.045 57.4162 112.143 57.5474 113 57.0999V24.9407L108.175 29.7623L106.244 27.8301C108.609 24.7979 108.832 20.9003 107.063 17.335C106.796 16.6001 106.46 15.8645 107.059 15.2692C108.127 14.2025 109.025 15.3045 109.158 15.4402ZM93.7252 8.52123C94.7565 7.49441 95.7974 8.85814 96.0643 9.12498L103.266 16.3288C103.533 16.595 104.899 17.6327 103.87 18.6634C103.168 19.3655 102.437 19.0247 101.699 18.6261C100.131 17.661 98.1996 16.9955 96.4346 18.0204L94.3662 15.9539C95.3975 14.1896 94.7282 12.2569 93.7592 10.6874C93.3657 9.95826 93.0282 9.22013 93.7252 8.52123ZM69.2475 18.7881C69.3786 18.6557 70.543 17.6224 71.5094 18.5888C71.9749 19.0562 71.9749 19.658 71.6811 20.2219C70.8774 21.758 71.1121 21.9232 72.3491 23.1577L89.8307 40.6374C91.0672 41.8732 91.2311 42.1053 92.7646 41.308C93.333 41.0052 93.9303 41.0116 94.3996 41.4739C95.3641 42.4396 94.3379 43.6047 94.2048 43.7397L84.7789 53.1617C84.6446 53.2974 83.4789 54.3255 82.5157 53.3604C82.0438 52.893 82.0386 52.2956 82.3415 51.726C83.1413 50.197 82.9079 50.0285 81.6734 48.7921L66.1805 33.2999L79.6815 58.254L78.7171 59.2172L51.1158 45.5284C50.4478 45.1909 49.781 44.8565 49.0808 44.6894C48.2855 44.4875 47.7492 44.2213 47.1474 44.7511C46.7166 45.1201 45.7483 45.9528 44.9485 45.1504C43.9159 44.1145 44.9195 43.116 45.3175 42.718L53.7693 34.2675L67.5667 40.9428L67.6355 40.8791L60.4575 27.5749L69.2475 18.7881ZM68.9273 84.5211C68.6996 84.1064 68.5119 83.6923 68.908 83.2982C69.4898 82.7195 70.0737 83.4892 70.2228 83.6383L74.2754 87.6922C74.4227 87.8395 75.1936 88.422 74.6098 89.0032C74.2195 89.398 73.8054 89.2096 73.3914 88.9833C72.5111 88.4419 71.4239 88.0651 70.4299 88.6483L69.2642 87.482C69.8448 86.4892 69.4706 85.4033 68.9273 84.5211ZM70.8587 81.874C70.5385 82.1929 70.2601 82.1003 69.8833 81.912C67.8741 80.8806 66.0018 80.9186 64.0851 82.3029L62.9991 81.2176L67.181 77.037L70.9892 80.8408C71.0831 80.9353 71.4226 81.3095 70.8587 81.874ZM56.9057 73.3579L39.6305 56.0756C38.7946 55.2436 37.6592 54.3769 35.5316 55.3755L33.5956 53.4421C41.2842 47.0175 50.2864 49.4242 56.9244 56.0621C63.5617 62.7021 65.9715 71.6997 59.547 79.3928L57.6155 77.4588C58.6128 75.3286 57.7454 74.1899 56.9057 73.3579ZM66.3914 61.004L55.1523 49.7617L55.2192 49.6942L62.5857 53.3353L68.3229 59.0719C73.0249 62.7111 73.8511 59.2828 75.2849 60.7191C76.3201 61.7517 74.8908 63.046 74.5262 63.4125L70.7308 67.2035C70.3662 67.5706 69.0693 69.0031 68.0367 67.9718C66.6004 66.5354 70.0287 65.7053 66.3914 61.004ZM53.7404 21.8043C53.5983 21.4159 53.4221 21.0282 53.7404 20.7112C54.3036 20.1473 54.7801 20.7286 54.8508 20.8L58.3762 24.3247L54.3216 28.3799L53.2993 27.3576C54.5499 25.754 54.6746 23.6907 53.7404 21.8043ZM52.0487 22.5096C51.6778 22.8793 51.2894 22.7038 50.9017 22.4916C50.0729 21.9817 49.0506 21.6287 48.1164 22.1759L47.0233 21.0809C47.5698 20.1473 47.2169 19.125 46.7057 18.2962C46.4948 17.9085 46.318 17.5208 46.6883 17.1505C47.2355 16.604 47.782 17.326 47.9228 17.4681L51.7305 21.2757C51.8719 21.4166 52.594 21.9637 52.0487 22.5096ZM45.0668 11.2635L48.6455 14.8416C48.733 14.9303 49.05 15.282 48.5221 15.8105C48.2218 16.1108 47.9582 16.0221 47.6059 15.8459C45.7181 14.8776 43.9551 14.9117 42.158 16.2162L41.1363 15.1939L45.0668 11.2635ZM35.6872 20.6418L40.3416 15.988L53.5282 29.1739L48.8744 33.8277C48.8043 33.8978 48.1877 34.4443 47.6753 33.9332C47.429 33.6869 47.429 33.3693 47.5872 33.0703C48.0103 32.2583 47.8875 32.1708 47.2349 31.5182L37.9967 22.2801C37.3448 21.6281 37.256 21.504 36.4452 21.9271C36.1456 22.0865 35.8286 22.0865 35.5817 21.8396C35.0706 21.3285 35.6171 20.7112 35.6872 20.6418ZM29.037 27.2907L34.0258 22.3026C34.0965 22.2325 34.7137 21.686 35.2249 22.1971C35.4712 22.444 35.4712 22.761 35.313 23.0606C34.8899 23.8714 35.0134 23.9601 35.6653 24.6121L44.9028 33.8496C45.5554 34.5022 45.6429 34.6244 46.4543 34.2026C46.7539 34.0438 47.0709 34.0438 47.3178 34.2907C47.8296 34.8018 47.2824 35.4191 47.213 35.4885L42.2236 40.4786C42.1535 40.5493 41.5369 41.0952 41.0245 40.584C40.7782 40.3384 40.7782 40.0208 40.9364 39.7205C41.3594 38.9091 41.236 38.8217 40.584 38.169L36.3707 33.9557L34.8192 35.5078L33.7969 34.4842L35.3483 32.9334L31.3465 28.9309C30.6939 28.2789 30.6058 28.1548 29.795 28.5786C29.4954 28.7374 29.1784 28.7374 28.9309 28.4898C28.4197 27.9787 28.9669 27.3621 29.037 27.2907ZM22.3733 33.955L27.3627 28.9656C27.4334 28.8968 28.05 28.349 28.5612 28.8602C28.8087 29.1077 28.8087 29.4253 28.6486 29.7243C28.2262 30.5351 28.3497 30.6232 29.0023 31.2752L38.2391 40.5139C38.8924 41.1665 38.9798 41.2887 39.7912 40.8663C40.0902 40.7081 40.4078 40.7081 40.6554 40.9544C41.1653 41.4655 40.6187 42.0828 40.5487 42.1535L35.5605 47.1416C35.4898 47.213 34.8726 47.7595 34.3614 47.2484C34.1158 47.0008 34.1145 46.6832 34.274 46.3829C34.697 45.5728 34.5736 45.4853 33.9216 44.8321L24.6828 35.5952C24.0309 34.942 23.9421 34.8192 23.1313 35.2423C22.8311 35.4004 22.5141 35.4004 22.2678 35.1535C21.7567 34.6424 22.3032 34.0251 22.3733 33.955ZM21.1928 35.1368L25.3001 39.2441C25.3708 39.3148 25.7579 39.8073 25.2293 40.3371C24.7349 40.8309 24.1884 40.4593 23.7486 40.1256C22.6556 39.3495 21.2449 38.432 19.676 38.6969L18.6537 37.6746L21.1928 35.1368ZM17.8603 38.4687L29.0724 49.6807C29.725 50.3333 29.8131 50.4568 30.6238 50.0337C30.9235 49.8742 31.2404 49.8742 31.4873 50.1218C31.9985 50.6323 31.452 51.2495 31.3819 51.3196L26.3931 56.3103C26.3224 56.3791 25.7058 56.9269 25.1946 56.4145C24.9471 56.1682 24.9471 55.8512 25.1065 55.5503C25.529 54.7396 25.4062 54.6521 24.7536 53.9995L13.5415 42.7875L17.8603 38.4687ZM10.209 46.1193L12.7481 43.5802L13.7698 44.6032C13.5055 46.172 14.4217 47.5827 15.1978 48.6764C15.5328 49.1175 15.9031 49.6633 15.41 50.1565C14.8802 50.6863 14.387 50.2979 14.3163 50.2266L10.209 46.1193ZM45.5664 92.3762L36.1437 101.793C36.0087 101.926 34.843 102.957 33.8766 101.994C33.4124 101.525 33.4111 100.925 33.7069 100.359C34.5099 98.8271 34.2746 98.6599 33.0414 97.4254L25.068 89.4507L22.1354 92.3827L20.2065 90.4486L23.1326 87.518L15.5559 79.9445C14.3266 78.7119 14.1581 78.4798 12.624 79.2751C12.062 79.5773 11.4557 79.5728 10.9934 79.1054C10.0264 78.139 11.059 76.9785 11.1934 76.8415L20.6135 67.4227C20.7466 67.2896 21.9084 66.2583 22.8761 67.2215C23.3442 67.6915 23.348 68.2907 23.0471 68.8552C22.246 70.3881 22.4813 70.554 23.7145 71.7872L41.1948 89.2694C42.4268 90.5065 42.5946 90.7412 44.1287 89.9368C44.6958 89.6404 45.2925 89.643 45.7618 90.1085C46.7263 91.0761 45.6982 92.2419 45.5664 92.3762ZM34.7202 78.2676C28.0835 71.6264 25.6736 62.6262 32.0969 54.937L34.0316 56.8716C33.0324 59.0018 33.9017 60.1347 34.7369 60.9686L52.016 78.249C52.8499 79.0842 53.9854 79.9509 56.1149 78.953L58.0495 80.8909C50.3584 87.3122 41.3607 84.905 34.7202 78.2676ZM64.2407 108.036L63.1541 106.948C64.1487 105.651 63.1354 104.526 62.4192 103.816L54.4316 95.8238C53.7179 95.1127 52.5927 94.1 51.3003 95.0934L50.2105 94.0061C53.361 90.7785 58.2367 90.329 63.3026 94.9468C67.9152 99.1447 67.3546 104.922 64.2407 108.036ZM71.2342 101.042C71.159 101.115 70.5012 101.698 69.9579 101.155C69.6969 100.892 69.6956 100.553 69.8641 100.236C70.3154 99.3743 70.1842 99.2804 69.4918 98.5847L59.664 88.757C58.9696 88.0651 58.8738 87.9333 58.0142 88.3802C57.694 88.5538 57.3571 88.5525 57.0922 88.2882C56.5476 87.7469 57.1301 87.0865 57.2053 87.0126L62.1549 82.0624L76.1838 96.0919L71.2342 101.042ZM77.0306 95.2484L75.9407 94.1598C77.2717 92.4547 77.4048 90.2589 76.4094 88.249C76.2622 87.8369 76.0706 87.4267 76.4075 87.0885C77.0106 86.4879 77.5173 87.1058 77.5906 87.1823L81.3448 90.9353L77.0306 95.2484ZM87.9648 84.3154L82.6565 89.625C82.5826 89.7028 82.0727 90.1348 81.5275 89.5922C81.2664 89.3286 81.2195 89.0347 81.3879 88.7158C81.8387 87.8542 81.6027 87.8632 80.9096 87.1675L71.0806 77.3411C70.3874 76.6467 70.2929 76.5162 69.4294 76.9637C69.1118 77.1353 68.7742 77.1315 68.5113 76.8679C67.9686 76.3259 68.5511 75.6688 68.6244 75.5935L73.5759 70.6453L85.5081 82.5761C86.198 83.2667 86.2938 83.4017 87.156 82.9491C87.4755 82.7812 87.8131 82.7793 88.0767 83.0423C88.6226 83.5849 88.0401 84.2421 87.9648 84.3154ZM86.6834 71.5634C86.4288 71.3088 86.187 71.0458 85.9549 70.779C86.3356 71.7679 86.414 72.8448 86.1067 74.0536C85.7299 75.4431 84.8683 76.6827 83.0854 78.4624L81.9988 77.3771C82.8983 76.0597 82.1884 75.236 81.2696 74.314L78.4374 71.4824C77.5931 70.6408 76.6531 70.0396 75.508 70.8844L74.4201 69.7985C76.2024 68.0155 77.4395 67.1501 78.8296 66.7785C80.9867 66.2281 82.7317 66.8807 84.28 68.3692C82.5884 65.2096 82.5536 61.6251 85.2187 58.434L86.3092 59.5258C85.7453 60.7256 86.232 61.3608 86.6988 61.8296L96.4166 71.5441C96.8853 72.0128 97.5245 72.5009 98.7229 71.937L99.8108 73.0242C95.4798 76.6467 90.4152 75.2971 86.6834 71.5634ZM108.581 105.239C110.226 105.239 111.631 106.583 111.631 108.407C111.631 110.247 110.224 111.591 108.581 111.591C106.922 111.591 105.517 110.247 105.517 108.407C105.517 106.583 106.921 105.239 108.581 105.239ZM95.076 51.319C94.7925 52.9907 95.7685 54.4888 96.5941 55.6513C96.9355 56.102 97.302 56.6556 96.8673 57.1623C97.6826 57.6908 98.4632 58.3254 99.1923 59.0545C102.927 62.7869 104.279 67.8477 100.658 72.1839L99.5678 71.0947C100.13 69.8949 99.643 69.259 99.1737 68.7871L89.4591 59.0738C88.9897 58.6031 88.3525 58.1171 87.1521 58.6771L86.0662 57.5918C88.685 55.4025 91.5699 55.0398 94.2665 55.9117L91.2877 52.9328L93.9869 50.233L95.076 51.319ZM107.264 46.7796C106.74 47.303 106.158 46.9127 105.692 46.552C104.527 45.731 103.026 44.7562 101.359 45.0385L100.271 43.9512L102.97 41.2476L107.342 45.6172C107.416 45.6943 107.829 46.2177 107.264 46.7796ZM106.679 31.2584L97.8916 40.0504C97.7579 40.1835 96.5896 41.2154 95.6251 40.2497C95.1571 39.781 95.1571 39.1785 95.4567 38.6159C96.254 37.0831 96.0244 36.9153 94.788 35.6795L77.3032 18.1985C76.0687 16.9679 75.9041 16.7319 74.37 17.533C73.8029 17.832 73.203 17.832 72.7381 17.3639C71.7704 16.3995 72.805 15.2293 72.9381 15.0981L81.721 6.312L106.679 31.2584Z" fill="black"/>
</svg>

<?xml version="1.0" encoding="utf-8"?>
<!-- Generator: Adobe Illustrator 16.0.0, SVG Export Plug-In . SVG Version: 6.00 Build 0)  -->
<!DOCTYPE svg PUBLIC "-//W3C//DTD SVG 1.1//EN" "http://www.w3.org/Graphics/SVG/1.1/DTD/svg11.dtd">
<svg version="1.1" id="Layer_1" xmlns="http://www.w3.org/2000/svg" xmlns:xlink="http://www.w3.org/1999/xlink" x="0px" y="0px"
	 width="113px" height="113px" viewBox="0 0 113 113" enable-background="new 0 0 113 113" xml:space="preserve">
<path fill="#4D4D4D" d="M20.46,110.01L2.976,92.529c-1.237-1.237-1.401-1.471-2.933-0.673C0.029,91.864,0.014,91.87,0,91.879V113
	h21.098c0.01-0.02,0.02-0.041,0.03-0.061C21.924,111.414,21.692,111.243,20.46,110.01z"/>
<path fill="#4D4D4D" d="M108.573,108.188c0.448,0,0.846-0.033,0.846-0.597c0-0.452-0.39-0.536-0.759-0.536h-0.719v1.133H108.573z"/>
<path fill="#4D4D4D" d="M108.581,111.061c1.367,0,2.444-1.125,2.444-2.655c0-1.503-1.077-2.638-2.444-2.638
	c-1.38,0-2.458,1.135-2.456,2.638C106.125,109.936,107.201,111.061,108.581,111.061z M108.743,106.583
	c0.821,0,1.228,0.319,1.228,1.043c0,0.655-0.39,0.942-0.9,1.007l0.99,1.615h-0.592l-0.919-1.588h-0.606v1.588h-0.525l-0.001-3.665
	H108.743z"/>
<path fill="#4D4D4D" d="M109.158,15.44L113,19.276V0H93.261l4.156,4.159c0.169,0.166,0.771,0.837-0.229,1.831
	c-0.568,0.568-1.067,0.402-1.732,0.071c-3.566-1.844-6.899-1.775-10.298,0.686l-1.937-1.933L88.034,0H0v88.034l8.031-8.03
	c0.133-0.129,1.297-1.165,2.261-0.201c0.467,0.47,0.472,1.067,0.172,1.634c-0.802,1.537-0.568,1.7,0.67,2.938l17.481,17.478
	c1.234,1.239,1.399,1.472,2.933,0.672c0.566-0.301,1.167-0.301,1.633,0.168c0.965,0.97-0.066,2.132-0.198,2.266L24.941,113h32.143
	c0.059-0.131,0.129-0.266,0.197-0.408c0.248-0.465-0.298-0.938-0.578-1.219l-9.83-9.829c-0.283-0.28-0.75-0.824-1.218-0.579
	c-0.506,0.244-0.919,0.545-1.39,0.076c-0.486-0.486-0.074-1.016,0.301-1.386l4.802-4.802l14.028,14.026L59.275,113H113V59.278
	l-4.497,4.494c-0.073,0.075-0.731,0.659-1.274,0.112c-0.263-0.26-0.264-0.598-0.094-0.917c0.451-0.862,0.318-0.954-0.373-1.647
	L94.828,49.389l4.596-4.595l11.93,11.928c0.691,0.694,0.789,0.825,1.646,0.378V24.94l-4.825,4.822l-1.931-1.932
	c2.365-3.032,2.588-6.93,0.818-10.495c-0.267-0.735-0.603-1.471-0.004-2.066C108.127,14.203,109.025,15.305,109.158,15.44z
	 M93.725,8.521c1.031-1.027,2.072,0.337,2.34,0.604l7.201,7.204c0.268,0.266,1.633,1.304,0.604,2.335
	c-0.702,0.702-1.433,0.361-2.171-0.038c-1.568-0.965-3.5-1.63-5.265-0.605l-2.068-2.066c1.031-1.765,0.362-3.697-0.606-5.267
	C93.365,9.958,93.028,9.22,93.725,8.521z M69.248,18.788c0.131-0.132,1.295-1.166,2.262-0.199c0.465,0.467,0.465,1.069,0.172,1.633
	c-0.805,1.536-0.569,1.702,0.668,2.936l17.48,17.479c1.237,1.236,1.4,1.468,2.935,0.671c0.568-0.303,1.165-0.296,1.635,0.166
	c0.965,0.966-0.062,2.131-0.194,2.266l-9.426,9.422c-0.135,0.136-1.301,1.164-2.264,0.199c-0.472-0.467-0.477-1.065-0.174-1.634
	c0.799-1.529,0.566-1.698-0.668-2.934L66.181,33.3l13.501,24.954l-0.965,0.963L51.116,45.528c-0.668-0.337-1.335-0.672-2.035-0.839
	c-0.795-0.202-1.332-0.468-1.933,0.062c-0.431,0.369-1.399,1.202-2.199,0.399c-1.033-1.036-0.029-2.034,0.369-2.433l8.452-8.45
	l13.797,6.675l0.069-0.064l-7.179-13.304L69.248,18.788z M68.928,84.521c-0.229-0.415-0.416-0.829-0.02-1.223
	c0.582-0.579,1.166,0.19,1.314,0.34l4.053,4.054c0.147,0.147,0.918,0.729,0.334,1.311c-0.39,0.396-0.805,0.206-1.218-0.02
	c-0.88-0.542-1.968-0.919-2.962-0.335l-1.166-1.166C69.845,86.489,69.471,85.403,68.928,84.521z M70.859,81.874
	c-0.32,0.319-0.6,0.226-0.977,0.038c-2.009-1.031-3.881-0.994-5.798,0.391l-1.086-1.085l4.183-4.181l3.808,3.804
	C71.083,80.936,71.422,81.31,70.859,81.874z M56.906,73.357L39.63,56.076c-0.836-0.832-1.971-1.699-4.099-0.7l-1.936-1.934
	c7.688-6.424,16.691-4.018,23.329,2.62c6.637,6.64,9.047,15.637,2.623,23.331l-1.932-1.934
	C58.613,75.328,57.746,74.189,56.906,73.357z M66.392,61.004L55.152,49.762l0.067-0.067l7.367,3.641l5.736,5.737
	c4.703,3.639,5.529,0.211,6.963,1.646c1.035,1.033-0.395,2.327-0.759,2.693l-3.796,3.791c-0.364,0.367-1.661,1.8-2.693,0.769
	C66.601,66.535,70.029,65.705,66.392,61.004z M53.74,21.804c-0.142-0.388-0.318-0.776,0-1.093c0.563-0.563,1.04,0.018,1.11,0.089
	l3.525,3.525l-4.054,4.055l-1.022-1.022C54.55,25.754,54.675,23.69,53.74,21.804z M52.049,22.51
	c-0.371,0.37-0.759,0.194-1.147-0.018c-0.829-0.51-1.851-0.863-2.786-0.316l-1.093-1.095c0.546-0.934,0.193-1.956-0.318-2.785
	c-0.211-0.388-0.388-0.775-0.017-1.146c0.547-0.546,1.094,0.176,1.234,0.318l3.808,3.808C51.872,21.417,52.594,21.964,52.049,22.51z
	 M45.067,11.264l3.579,3.578c0.087,0.088,0.404,0.44-0.124,0.969c-0.3,0.3-0.564,0.211-0.916,0.035
	c-1.888-0.968-3.651-0.934-5.448,0.371l-1.022-1.022L45.067,11.264z M35.687,20.642l4.655-4.654l13.187,13.186l-4.654,4.654
	c-0.07,0.07-0.687,0.617-1.199,0.105c-0.246-0.246-0.246-0.564-0.088-0.863c0.423-0.812,0.3-0.899-0.353-1.552l-9.238-9.238
	c-0.652-0.652-0.741-0.776-1.551-0.353c-0.3,0.159-0.617,0.159-0.864-0.087C35.071,21.329,35.617,20.711,35.687,20.642z
	 M29.037,27.291l4.989-4.988c0.071-0.07,0.688-0.617,1.199-0.105c0.246,0.247,0.246,0.563,0.088,0.863
	c-0.423,0.811-0.3,0.899,0.353,1.552l9.237,9.237c0.652,0.652,0.74,0.775,1.551,0.353c0.3-0.159,0.617-0.159,0.864,0.088
	c0.512,0.511-0.036,1.128-0.105,1.198l-4.989,4.99c-0.07,0.071-0.687,0.617-1.199,0.105c-0.246-0.246-0.246-0.563-0.088-0.863
	c0.423-0.812,0.299-0.899-0.353-1.552l-4.213-4.213l-1.551,1.552l-1.022-1.023l1.551-1.551l-4.001-4.003
	c-0.653-0.652-0.741-0.776-1.552-0.352c-0.299,0.159-0.617,0.159-0.864-0.089C28.42,27.979,28.967,27.362,29.037,27.291z
	 M22.374,33.955l4.989-4.989c0.071-0.069,0.687-0.617,1.198-0.105c0.248,0.248,0.248,0.565,0.087,0.864
	c-0.422,0.811-0.299,0.899,0.354,1.551l9.237,9.238c0.653,0.653,0.741,0.775,1.552,0.353c0.299-0.158,0.617-0.158,0.864,0.088
	c0.51,0.511-0.037,1.128-0.106,1.199l-4.988,4.988c-0.071,0.071-0.688,0.618-1.199,0.107c-0.246-0.248-0.247-0.565-0.087-0.866
	c0.423-0.81,0.3-0.897-0.353-1.551l-9.239-9.237c-0.652-0.653-0.741-0.776-1.551-0.353c-0.3,0.158-0.617,0.158-0.864-0.089
	C21.757,34.643,22.303,34.025,22.374,33.955z M21.193,35.137l4.107,4.107c0.07,0.071,0.458,0.563-0.071,1.093
	c-0.495,0.494-1.041,0.123-1.481-0.211c-1.093-0.776-2.503-1.693-4.073-1.429l-1.022-1.022L21.193,35.137z M17.86,38.469
	l11.212,11.212c0.653,0.653,0.741,0.776,1.552,0.353c0.299-0.16,0.616-0.16,0.863,0.088c0.511,0.51-0.035,1.127-0.105,1.197
	l-4.989,4.991c-0.071,0.068-0.688,0.616-1.198,0.104c-0.248-0.247-0.248-0.563-0.088-0.864c0.422-0.811,0.3-0.898-0.353-1.551
	L13.542,42.788L17.86,38.469z M10.209,46.119l2.539-2.539l1.022,1.023c-0.265,1.569,0.652,2.979,1.428,4.073
	c0.335,0.441,0.706,0.987,0.212,1.48c-0.53,0.53-1.023,0.142-1.094,0.07L10.209,46.119z M45.566,92.376l-9.423,9.417
	c-0.135,0.133-1.301,1.164-2.267,0.201c-0.464-0.469-0.465-1.069-0.169-1.635c0.803-1.532,0.567-1.699-0.666-2.934l-7.974-7.975
	l-2.933,2.932l-1.929-1.934l2.926-2.932l-7.577-7.573c-1.229-1.232-1.397-1.464-2.932-0.669c-0.562,0.302-1.168,0.297-1.631-0.17
	c-0.967-0.967,0.066-2.127,0.2-2.264l9.42-9.419c0.133-0.134,1.295-1.165,2.263-0.201c0.468,0.47,0.472,1.069,0.171,1.634
	c-0.801,1.533-0.565,1.699,0.667,2.932l17.48,17.482c1.232,1.236,1.4,1.472,2.934,0.667c0.567-0.296,1.164-0.294,1.633,0.172
	C46.726,91.076,45.698,92.242,45.566,92.376z M34.72,78.268c-6.637-6.641-9.046-15.642-2.624-23.331l1.935,1.935
	c-1,2.13-0.13,3.263,0.705,4.097l17.279,17.28c0.834,0.835,1.969,1.702,4.099,0.704l1.934,1.938
	C50.358,87.313,41.361,84.905,34.72,78.268z M64.24,108.036l-1.086-1.088c0.994-1.298-0.02-2.423-0.734-3.132l-7.988-7.992
	c-0.714-0.711-1.839-1.725-3.131-0.73l-1.09-1.088c3.15-3.228,8.026-3.677,13.092,0.941C67.915,99.145,67.354,104.922,64.24,108.036
	z M71.234,101.042c-0.075,0.073-0.733,0.656-1.276,0.113c-0.261-0.263-0.263-0.603-0.094-0.919c0.451-0.862,0.319-0.956-0.372-1.651
	l-9.828-9.828c-0.694-0.692-0.79-0.823-1.65-0.376c-0.32,0.173-0.656,0.172-0.922-0.093c-0.544-0.541,0.038-1.202,0.113-1.275
	l4.949-4.95l14.029,14.029L71.234,101.042z M77.031,95.248l-1.09-1.088c1.33-1.705,1.463-3.901,0.468-5.911
	c-0.147-0.412-0.339-0.822-0.001-1.161c0.603-0.6,1.109,0.018,1.183,0.094l3.754,3.754L77.031,95.248z M87.965,84.315l-5.309,5.31
	c-0.074,0.078-0.584,0.51-1.129-0.033c-0.261-0.264-0.308-0.557-0.14-0.876c0.451-0.862,0.215-0.853-0.478-1.548l-9.83-9.826
	c-0.693-0.695-0.787-0.826-1.65-0.378c-0.318,0.171-0.655,0.167-0.918-0.096c-0.543-0.542,0.039-1.199,0.113-1.274l4.951-4.948
	l11.932,11.931c0.69,0.69,0.786,0.826,1.648,0.373c0.319-0.168,0.656-0.17,0.92,0.094C88.623,83.585,88.04,84.242,87.965,84.315z
	 M86.684,71.563c-0.255-0.255-0.496-0.518-0.729-0.784c0.381,0.988,0.459,2.065,0.152,3.274c-0.377,1.39-1.239,2.629-3.021,4.409
	l-1.087-1.086c0.899-1.317,0.189-2.141-0.729-3.063l-2.832-2.832c-0.844-0.842-1.784-1.443-2.93-0.598l-1.088-1.086
	c1.783-1.783,3.02-2.648,4.41-3.021c2.156-0.55,3.902,0.103,5.449,1.591c-1.691-3.16-1.726-6.744,0.939-9.936l1.09,1.092
	c-0.563,1.2-0.076,1.836,0.391,2.305l9.717,9.714c0.469,0.469,1.108,0.957,2.307,0.394l1.088,1.087
	C95.48,76.646,90.415,75.297,86.684,71.563z M108.581,105.239c1.646,0,3.05,1.344,3.05,3.168c0,1.84-1.406,3.184-3.05,3.184
	c-1.659,0-3.063-1.344-3.063-3.184C105.518,106.583,106.921,105.239,108.581,105.239z M95.076,51.319
	c-0.283,1.672,0.692,3.17,1.518,4.333c0.342,0.451,0.708,1.004,0.273,1.511c0.815,0.529,1.596,1.163,2.325,1.893
	c3.734,3.732,5.087,8.793,1.466,13.129l-1.09-1.089c0.562-1.2,0.074-1.836-0.395-2.308l-9.715-9.713
	c-0.469-0.471-1.106-0.957-2.307-0.396l-1.086-1.086c2.619-2.189,5.504-2.552,8.2-1.68l-2.979-2.979l2.699-2.7L95.076,51.319z
	 M107.264,46.78c-0.523,0.523-1.105,0.133-1.572-0.228c-1.164-0.821-2.666-1.795-4.332-1.513l-1.088-1.087l2.699-2.704l4.371,4.37
	C107.416,45.694,107.829,46.218,107.264,46.78z M106.68,31.258l-8.788,8.792c-0.134,0.133-1.302,1.165-2.267,0.199
	c-0.468-0.468-0.468-1.071-0.168-1.634c0.797-1.533,0.567-1.701-0.669-2.936L77.303,18.198c-1.234-1.23-1.398-1.466-2.933-0.665
	c-0.567,0.299-1.167,0.299-1.632-0.169c-0.968-0.964,0.066-2.134,0.199-2.266l8.783-8.786L106.68,31.258z"/>
</svg>
